assets/img/tick-icon.svg

<svg width="21" height="21" viewBox="0 0 21 21" fill="none" xmlns="http://www.w3.org/2000/svg">
<path fill-rule="evenodd" clip-rule="evenodd" d="M6.34546 2.35417C3.92088 2.35417 2.354 4.01496 2.354 6.58617V14.4138C2.354 16.985 3.92088 18.6458 6.34546 18.6458H14.6523C17.0778 18.6458 18.6457 16.985 18.6457 14.4138V6.58617C18.6457 4.01496 17.0778 2.35417 14.6533 2.35417H6.34546ZM14.6523 20.0833H6.34546C3.09767 20.0833 0.916504 17.8044 0.916504 14.4138V6.58617C0.916504 3.19558 3.09767 0.916668 6.34546 0.916668H14.6533C17.901 0.916668 20.0832 3.19558 20.0832 6.58617V14.4138C20.0832 17.8044 17.901 20.0833 14.6523 20.0833Z" fill="#01A355"/>
<path fill-rule="evenodd" clip-rule="evenodd" d="M9.36273 13.4929C9.17969 13.4929 8.99473 13.4229 8.85482 13.282L6.57973 11.0079C6.29894 10.7271 6.29894 10.2729 6.57973 9.99208C6.86053 9.71129 7.31478 9.71129 7.59557 9.99208L9.36273 11.7573L13.4031 7.71796C13.6839 7.43717 14.1381 7.43717 14.4189 7.71796C14.6997 7.99875 14.6997 8.453 14.4189 8.73379L9.87065 13.282C9.73073 13.4229 9.54673 13.4929 9.36273 13.4929Z" fill="#01A355"/>
</svg>

<svg xmlns="http://www.w3.org/2000/svg" width="21" height="21" fill="none"><path fill="#01A355" fill-rule="evenodd" d="M6.345 2.354c-2.424 0-3.991 1.661-3.991 4.232v7.828c0 2.571 1.567 4.232 3.991 4.232h8.307c2.426 0 3.994-1.661 3.994-4.232V6.586c0-2.571-1.568-4.232-3.993-4.232zm8.307 17.73H6.345c-3.247 0-5.428-2.28-5.428-5.67V6.586c0-3.39 2.18-5.67 5.428-5.67h8.308c3.248 0 5.43 2.28 5.43 5.67v7.828c0 3.39-2.182 5.67-5.43 5.67" clip-rule="evenodd"/><path fill="#01A355" fill-rule="evenodd" d="M9.363 13.493a.72.72 0 0 1-.508-.211L6.58 11.008a.718.718 0 1 1 1.016-1.016l1.767 1.765 4.04-4.039a.718.718 0 1 1 1.016 1.016L9.87 13.282a.71.71 0 0 1-.508.21" clip-rule="evenodd"/></svg>
